korla/apps/symbolic/file-roller-symbolic.svg

<svg style="clip-rule:evenodd;fill-rule:evenodd;stroke-linejoin:round;stroke-miterlimit:2" version="1.1" viewBox="0 0 16 16" xmlns="http://www.w3.org/2000/svg">
 <path d="m7 0h1v1h1v1h-1v1h1v1h-1v1c1.105 0 2 0.9 2 2v4c0 1.1-0.895 2-2 2s-2-0.9-2-2v-4c0-1.1 0.895-2 2-2-0.552 0-1-0.5-1-1h1v-1h-1v-1h1v-1h-1v-1zm1 9c-0.552 0-1 0.4-1 1v1c0 0.5 0.448 1 1 1s1-0.5 1-1v-1c0-0.6-0.448-1-1-1zm0-3c-0.552 0-1 0.4-1 1 0 0.5 0.448 1 1 1s1-0.5 1-1c0-0.6-0.448-1-1-1z" style="fill:rgb(223,223,223)"/>
 <path d="M16,3.608C16,1.616 14.384,0 12.392,0L3.608,0C1.616,0 0,1.616 0,3.608L0,12.392C0,14.384 1.616,16 3.608,16L12.392,16C14.384,16 16,14.384 16,12.392L16,3.608ZM15,3.608L15,12.392C15,13.832 13.832,15 12.392,15L3.608,15C2.168,15 1,13.832 1,12.392L1,3.608C1,2.168 2.168,1 3.608,1L12.392,1C13.832,1 15,2.168 15,3.608Z" style="fill:rgb(223,223,223)"/>
</svg>

<svg xmlns="http://www.w3.org/2000/svg" width="16" height="16" version="1">
 <path style="fill:#dfdfdf" d="M 1 0 C 0.446 0 0 0.446 0 1 L 0 15 C 0 15.554 0.446 16 1 16 L 15 16 C 15.554 16 16 15.554 16 15 L 16 1 C 16 0.446 15.554 0 15 0 L 8 0 L 8 1 L 9 1 L 9 2 L 8 2 L 8 3 L 9 3 L 9 4 L 8 4 L 8 5 C 9.105 5 10 5.9 10 7 L 10 11 C 10 12.1 9.105 13 8 13 C 6.895 13 6 12.1 6 11 L 6 7 C 6 5.9 6.895 5 8 5 C 7.448 5 7 4.5 7 4 L 8 4 L 8 3 L 7 3 L 7 2 L 8 2 L 8 1 L 7 1 L 7 0 L 1 0 z M 8 6 C 7.448 6 7 6.4 7 7 C 7 7.5 7.448 8 8 8 C 8.552 8 9 7.5 9 7 C 9 6.4 8.552 6 8 6 z M 8 9 C 7.448 9 7 9.4 7 10 L 7 11 C 7 11.5 7.448 12 8 12 C 8.552 12 9 11.5 9 11 L 9 10 C 9 9.4 8.552 9 8 9 z"/>
</svg>
